dist/svg/database.svg

<!-- Generated by Trend Micro Style Portal -->
<svg version="1.1" xmlns="http://www.w3.org/2000/svg" width="16" height="16" viewBox="0 0 16 16">
  <title>database</title>
  <path fill="rgb(34,34,34)" d="M15 6v3c0 1.4-3.1 2.5-7 2.5s-7-1.1-7-2.5v-3c0 1.4 3.1 2.5 7 2.5s7-1.1 7-2.5zM8 13c-3.9 0-7-1.1-7-2.5v3c0 1.4 3.1 2.5 7 2.5s7-1.1 7-2.5v-3c0 1.4-3.1 2.5-7 2.5zM8 0c-3.9 0-7 1.1-7 2.5v2c0 1.4 3.1 2.5 7 2.5s7-1.1 7-2.5v-2c0-1.4-3.1-2.5-7-2.5z"></path>
</svg>

<svg width="16" height="16" viewBox="0 0 16 16" fill="rgb(34, 34, 34)" xmlns="http://www.w3.org/2000/svg"><title>database</title><path d="M15 6V9C15 10.4 11.9 11.5 8 11.5C4.1 11.5 1 10.4 1 9V6C1 7.4 4.1 8.5 8 8.5C11.9 8.5 15 7.4 15 6ZM8 13C4.1 13 1 11.9 1 10.5V13.5C1 14.9 4.1 16 8 16C11.9 16 15 14.9 15 13.5V10.5C15 11.9 11.9 13 8 13ZM8 0C4.1 0 1 1.1 1 2.5V4.5C1 5.9 4.1 7 8 7C11.9 7 15 5.9 15 4.5V2.5C15 1.1 11.9 0 8 0Z" fill="rgb(34, 34, 34)" fill-opacity="1.00"/></svg>
